resources/svg/major-games-console.svg

<svg xmlns="http://www.w3.org/2000/svg" viewBox="0 0 20 20" fill="currentColor"><path fill-rule="evenodd" d="M11 2.77355C11 2.34198 11.3442 2 11.77 2H14V0H11.77C10.2358 0 9 1.24119 9 2.77355V5H5.54996C2.97595 5 0.822518 6.95421 0.573424 9.51614L0.0156172 15.2532C-0.179608 17.2611 1.39843 19 3.4158 19C4.97964 19 6.34381 17.9381 6.72756 16.4221L6.801 16.1319C6.9695 15.4663 7.56848 15 8.25514 15H11.9949C12.6816 15 13.2805 15.4663 13.449 16.1319L13.5469 16.5185C13.9163 17.9778 15.2294 19 16.7347 19C18.6763 19 20.1951 17.3268 20.0078 15.3943L19.438 9.51751C19.1896 6.95498 17.0359 5 14.4613 5H11V2.77355ZM5.99995 7C6.55224 7 6.99995 7.44772 6.99995 8V9H7.99995C8.55224 9 8.99995 9.44771 8.99995 10C8.99995 10.5523 8.55224 11 7.99995 11H6.99995V12C6.99995 12.5523 6.55224 13 5.99995 13C5.44767 13 4.99995 12.5523 4.99995 12V11H3.99995C3.44767 11 2.99995 10.5523 2.99995 10C2.99995 9.44772 3.44767 9 3.99995 9H4.99995V8C4.99995 7.44772 5.44767 7 5.99995 7ZM13.5 10C14.3284 10 15 9.32843 15 8.5C15 7.67157 14.3284 7 13.5 7C12.6715 7 12 7.67157 12 8.5C12 9.32843 12.6715 10 13.5 10ZM16.5 14C17.3284 14 18 13.3284 18 12.5C18 11.6716 17.3284 11 16.5 11C15.6715 11 15 11.6716 15 12.5C15 13.3284 15.6715 14 16.5 14Z" fill="#5C5F62"/></svg>

<svg xmlns="http://www.w3.org/2000/svg" viewBox="0 0 20 20" fill="currentColor"><path fill-rule="evenodd" d="M11 2.774c0-.432.344-.774.77-.774h2.23v-2h-2.23a2.769 2.769 0 0 0-2.77 2.774v2.226h-3.45a5 5 0 0 0-4.977 4.516l-.557 5.737a3.416 3.416 0 0 0 6.712 1.17l.073-.291a1.5 1.5 0 0 1 1.454-1.132h3.74a1.5 1.5 0 0 1 1.454 1.132l.098.386a3.288 3.288 0 0 0 6.46-1.124l-.569-5.876a5 5 0 0 0-4.977-4.518h-3.461v-2.226Zm-5 4.226a1 1 0 0 1 1 1v1h1a1 1 0 1 1 0 2h-1v1a1 1 0 1 1-2 0v-1h-1a1 1 0 1 1 0-2h1v-1a1 1 0 0 1 1-1Zm7.5 3a1.5 1.5 0 1 0 0-3 1.5 1.5 0 0 0 0 3Zm3 4a1.5 1.5 0 1 0 0-3 1.5 1.5 0 0 0 0 3Z"/></svg>
